X:1
T:With a Perfect Heart
T:With a Perfect Heart
T:Ward Rockwell
T:Helen L. Manning, 1896
T:Public Domain Courtesy of the Cyber Hymnal™
C:Ward Rockwell
Z:Public Domain
Z:Courtesy of the Cyber Hymnal™
%%score ( 1 2 ) ( 3 4 )
L:1/8
Q:1/4=108
M:4/4
K:Bb
V:1 treble 
V:2 treble 
V:3 bass 
V:4 bass 
V:1
 [DF]2 [DB]2 [DB]2 ([CA][DB]) | [Ec]2 [EG]2 [FA]2 [EG]2 | F2 [FB]2 [=EB]2 (AB) | [=Ed]2 [Ec]2 c4 | %4
w: 1.~Per- fect is my *|heart be- fore Thee,|Per- fect walk I *|in Thy ways;|
w: 2.~Per- fect free- dom! *|I de- clare it!|For the truth has *|made me free.|
 [DF]2 [DB]2 [DB]2 [Ec][Fd] | [Ge]2 [EG]2 [FA]2 [EG]2 | [DF]2 [DB]2 [DB]2 ([CA][DB]) | %7
w: Per- fect love e- ven|now re- stores me,|Per- fect is my *|
w: Per- fect peace! ye- a,|naught shall mer- it,|For my mind is *|
 [Ec]2 [Fd]2 [DB]4 ||"^Refrain" [Ee]2 [EG]2 [EG]2 [FA][EG] | [EG]2 [DF]2 [FB]4 | %10
w: song of praise.|||
w: stayed on Thee.|||
 [=Ed]2 [Ec]2 [EG]2 [Ed]2 | c8 | [DF]2 [DB]2 [DB]2 [Ec][Fd] | [Ge]2 [EG]2 [FA]2 [EG]2 | %14
w: ||||
w: ||||
 [DF]2 [DB]2 [Ec]2 [Fd]2 | [DB]8 |] %16
w: ||
w: ||
V:2
 x8 | x8 | F2 x2 =E2 x2 | x4 (F2 _E2) | x8 | x8 | x8 | x8 || x8 | x8 | x8 | (F4 E4) | x8 | x8 | %14
 x8 | x8 |] %16
V:3
 [B,,B,]2 [B,,F,]2 [B,,F,]2 [B,,F,]2 | [E,G,]2 [E,B,]2 [E,A,]2 [E,B,]2 | %2
w: ~ ~ ~ ~|~ ~ ~ ~|
 [D,B,]2 [D,B,]2 [G,C]2 [G,C]2 | [C,B,]2 [C,B,]2 [F,A,]4 | [B,,B,]2 [B,,F,]2 [B,,F,]2 [B,,B,]2 | %5
w: ~ ~ ~ ~|~ ~ ~|~ ~ ~ ~|
 [E,B,]2 [E,B,]2 [E,B,]2 [E,B,]2 | [F,B,]2 F,2 F,2 F,2 | [F,,F,]2 [F,,F,]2 [B,,F,]4 || %8
w: ~ ~ ~ ~|~ ~ ~ ~|~ ~ ~|
 [E,G,]2 [E,B,]2 [E,B,]2 [E,B,][E,B,] | [B,,B,]2 [B,,B,]2 [D,B,]4 | %10
w: I will walk with a|per- fect heart,|
 [C,G,]2 [C,G,]2 [C,B,]2 [C,B,]2 | [F,A,]8 | [B,,B,]2 [B,,F,]2 [B,,F,]2 [B,,B,][B,,B,] | %13
w: Love has cast out|fear;|I will walk with a|
 [E,B,]2 [E,B,]2 [E,B,]4 | [F,B,]2 [F,B,]2 [F,,F,A,]2 [F,,F,]2 | [B,,F,]8 |] %16
w: per- fect heart,|Joy has dried each|tear.|
V:4
 x8 | x8 | x8 | x8 | x8 | x8 | x2 F,2 F,2 F,2 | x8 || x8 | x8 | x8 | x8 | x8 | x8 | x8 | x8 |] %16

